X: 11
T:Rakes of Mallow
M:2/4
L:1/16
R:Breakdown
N:http://celtic.stanford.edu/pub/tunes/abc.tunes/xip
N:http://ca.geocities.com/cfalt@rogers.com/Fiddle/The_List.abc
K:G
D2| "G"G2B2 G2B2|G2B2 cBAG|"D7"F2A2 F2A2|F2A2 dcBA|!
"G"G2B2 G2B2|G2B2 d4|"C"cBAG "D7"FGAc|"G"B2G2 G2:|!
|:Bd|"G"g2fe d2c2|B2c2 d4|"D7"g2fe d2c2|B2c2 A4|!
"G"g2fe d2c2|B2c2 d4|"C"cBAG "D7"FGAc|"G"B2G2 G2:|]
